X:1
T:En espoir vis
T:En espoir vis
T:Orlande de Lassus
C:Orlande de Lassus
%%score [ 1 [ 2 3 ] 4 ]
L:1/8
Q:1/4=80
M:2/2
K:C
V:1 treble nm="Superius" snm="S"
V:2 treble-8 nm="Tenor 1" snm="T 1"
V:3 treble-8 nm="Tenor 2" snm="T 2"
V:4 bass nm="Bassus" snm="B"
V:1
 A4 A2 B2 | c4 z4 | z2 G2 c4 | B2 c4 B2 | A4 A2 A2- | A2 c4 B2 | c2 B3 A A2- | A2 G2 A4 | %8
w: En es- poir|vis|et crain-|cte me tour-|men- te, et|_ crain- cte|me tour- * men-|* * te,|
 z4 z2 E2- | E2 F2 G3 A | BG AB cd e2 |"^-natural" ^c2 c2 d2 G2- | G2 c4 B2 | A8 | ^G4 z2 A2- | %15
w: ung|_ jour je _|_ _ _ _ _ _ _|ris, et lau- tre|_ je la-|men-|te, vos-|
 A2 G2 ^F4 | G2 G2 A2 _B2 | A2 G2 G4- | G2 F2 G3 G | G2 G2 ^F2 G2 | A4 z4 | z2 d2 ^c2 d2 | %22
w: * tre doulx|oeil, vos- tre doulx|oeil me faict|_ bien es- pe-|rer, mais mon grief|mal,|mais mon grief|
 B4 z2 G2 | A2 F2 z c2 c | B4 z2 A2 | ^G2 A2 FF E2 | E G2 G A2 z2 | z G2 G G2 A2- | A2 A2 ^G4- | %29
w: mal me|con- trainct sous- pi-|rer, mais|mon grief mal me con-|trainct sous- pi- rer,|sous- pi- rer, sous-|* pi- rer.|
 G8 |] %30
w: _|
V:2
 z2 A2 d2 d2 | c2 e2 f4- | f2 e2 e2 g2 | g3 g a2 g2 | f4 e2 e2 | f2 a2 g2 g2 | g4 e4 | %7
w: En es- poir|vis, en es-|* poir vis et|crain- cte me tour-|men- te, et|crain- cte me tour-|men- te,|
 z2 e2 ed cB | A2 _B2 A4 | z2 A2 cd ec | de fd e a2 g | a3 e f2 e2 | e4 e4 | f8 | e4 e4 | %15
w: ung jour _ _ _|_ je ris,|ung jour _ _ _|_ _ _ _ _ _ je|ris et lau- tre|je la-|men-|te, vos-|
 A2 d2 d2 d2 | e2 e2 f4- | f2 ed e2 e2 | d2 c2 d2 d2 | e3 e d2 B2 | A4 z4 | z2 f2 e2 ^f2 | %22
w: tre doulx oeil, vos-|tre doulx oeil|_ _ _ _ me|faict bien es- pe-|rer, mais mon grief|mal,|mais mon grief|
 g4 z2 e2 | f2 c2 z e2 e | d2 g2 e2 f2 |"^-natural" e4 A2 c2 | c2 z c2 cdB- | Bc c2 e3 e | e8- | %29
w: mal me|con- trainct sous- pi-|rer, mais mon grief|mal me con-|trainct sous- pi- rer, sous-|* pi- rer, sous- pi-|rer.|
 e8 |] %30
w: _|
V:3
 z8 | A4 A2 B2 | c4 A2 e2- | e2 e2 d4- | d2 d2 c4 | c2 A2 e4- | e2 d2 c2 c2 | B4 A4 | z2 d2 c2 cB | %9
w: |la men- te,|vos- tre doulx|* oeil, vos-|_ tre doulx|oeil me faict|* bien es- pe-|rer, mais|mon grief mal _|
 AB cd eB c2 | G2 d2 c2 B2 | e2 A4 c2- | cB A4 B2 | c2 c2 d4 | B4 ^c4 | d2 B2 A4 | c4 c2 d2 | %17
w: _ _ _ _ _ _ _|me con trainct sous-|pi- rer, mais|* * * mon|grief mal me|con trainct|sous- pi- rer,|sous- pi- rer,|
 c6 c2 | B2 c2 c2 B2 | c4 z4 | z2 c2 B2 G2 | A4 z4 | z2 e2 d2 c2 | z A2 A G4 | z2 d2 ^c2 d2 | %25
w: sous- pi-|rer, sous- pi- rer.|En|es- poir vis|et|crain- cte me|tour- men- te,|ung jour je|
 B2 ^c2 d2 Gg- | ge e2 z f2 d | d e2 d c4 | c3 c B4- | B8 |] %30
w: ris, ung jour je ris|* et lau- tre je|la- men- te, vos|tre doulx oeil,|_|
V:4
 z8 | z2 A,,2 D,2 D,2 | C,4 z2 C,2 | E,3 E, ^F,2 G,2 | D,E, F,G, A,3 G, | F,4 E,4- | E,8- | %7
w: |vos- tre doulx|oeil me|faict bien es- pe-|rer, * * * * *|* mais|_|
 E,4 z2 A,2 | F,2 D,E, F,G, A,B, | C2 F,2 z4 | z2 D,2 A,2 E,2 | A,,2 A,,2 D,2 C,2 | C3 B, A,2 G,2 | %13
w: * mon|grief mal _ _ _ _ _|_ me|con trainct sous-|pi- rer, mais mon|grief mal me *|
 F,3 E, D,4 | E,2 E,2 A,3 G, | ^F,2 G,2 D,4 | z2 C,2 F,2 _B,,2 | F,2 C,2 C,D, E,F, | %18
w: |con- trainct sous- _|_ pi- rer,|sous- pi- rer,|sous- pi- rer. _ _ _|
 G,2 A,2 G,2 G,2 | C,4 z4 | z2 F,2 G,2 E,2 | D,4 z4 | z2 E,2 G,2 C,2 | z F,2 F, C,4 | G,4 A,2 D,2 | %25
w: _ _ _ _|||||||
 E,2 A,,2 D,2 C,2 | z C2 C F,2 z G,- | G,C, C,2 z2 A,,2- | A,,2 A,,2 E,4- | E,8 |] %30
w: |||||

